X: 43430
T: Y Gwyddel
R: hornpipe
M: 4/4
K: Dmajor
c>B|A>e e>d B>c d>B|(3cBA [e2A2] [f2A2] [e2A2]|A>e e>d B>c d>B|g>a g>e d>B G>B|
A>e e>d B>c d>B|(3cBA [e2A2] [f2A2] [e2A2]|~g3 e d>B G>B|1 (3cBA B>G A2:|2 (3cBA B>G A>B||
|:c>d|e>a a>g a>g e>d|c>d e>f g>e d>B|c>d e>f g>f a>f|g>e d>B G>A (3Bcd|
e>a a>g a>g e>d|c>d e>f g>e d>B|~g3 e d>B G>B|1 (3cBA B>G A>B:|2 (3cBA B>G A2||

